X:1
T:G minor Genevan Psalter, 1542 Harmonized by John Dowland, 1592
T:William Whittingham, 1556 76. 76. 76. 76.
T:Psalm 130 Transcribed from Esty, The Whole Booke of Psalmes, 1604.
%%score [ 1 2 3 4 ]
L:1/8
M:none
K:Bb
V:1 treble nm="Cantus" snm="Tr."
V:2 treble nm="Altus" snm="A."
V:3 treble-8 nm="Tenor" snm="T."
V:4 bass nm="Bassus" snm="B."
V:1
"^1. Lord, to thee I make my moan, When dangers me oppress:    I    call,     I    sigh,  plain   and    groan,  Trus – ting  to  find     re – lease." G4 B2 A2 G2 A2 (B2 c2) A4 | %1
 G4 B2 A2 G3 G ^F4 | A4 A2 d2 ^c2 d4 c2 d4 | (B3 c) d2 A2 A3 A ^F4 | %4
"^1. Hear now, O  Lord, my re–quest,  For  it  is  full  due  time:   And let thine ears aye be pressed,    Un–to this pra    –    yer   mine." F4 B2 B2 A2 G4 ^F2 G4 | %5
 A4 G2 F2 F2 E2 F4 | D2 G4 A2 B2 B4 A2 B4 | B4 A2 G2 (AG G4) ^F2 G16 |] %8
V:2
"^2. O Lord  God, if thou survey  Our sins, and them peruse,    Who shall  escape? or   who          say,          I   can  myself  ex     –     cuse?" B4 d2 d2 d2 d4 c2 d4 | %1
 d4 d2 d2 d2 g2 a4 | f4 ef g2 a2 a2 (a3 g) ^f4 | z2 g2 a2 f2 e (d2 ^c) d4 | %4
 z2"^2. Thou art mer–ci–ful  and free,  And boundless in thy grace, We might  always care–ful    be     To fear be–fore              thy  face." f2 d2 f2 f2 d2 (d3 c) B4 | %5
 f4 d2 c2 d2 cB A4 | G2 (d3 e) f2 f2 g2 (f3 e) d4 | f4 f2 d2 (e4 d3) c B16 |] %8
V:3
"^3. In God the Lord I put  trust,  My soul  waits  on  his  will;  His  promise  for  ev – er            just,    And    I   hope  therein           still." d4 G2 A2 B2 A2 G4 F4 | %1
 B4 G2 A2 B2 c2 d4 | d4 c2 d2 e2 f2 e4 d4 | g4 f2 d2 f2 e2 d4 | %4
"^3. My soul to God hath re – gard,   Wishing  for him al–way:  More than they that watch and ward  To see the daw –ning       day." d4 f2 d2 c2 B2 A4 G4 | %5
 c4 B2 A2 G2 G2 F4 | B4 B2 c2 d2 e2 c4 B4 | d4 c2 B2 c4 A4 G16 |] %8
V:4
"^4. O  Is–r'el, trust in  the  Lord,  With him  there mercy is,    And  he   doth greatly    af    –      ford    Re – demp–tion  un – to        his." G,4 G,2 ^F,2 G,2 F,2 E,4 D,4 | %1
 G,4 G,2 ^F,2 G,2 E,2 D,4 | D,4 A,,2 B,,2 A,,2 F,,2 A,,4 D,4 | E,4 D,2 D,2 A,2 A,2 D,4 | %4
"^4. He     it  is   that  Is–r'el     shall,  Through his abundant grace,  Re–deem from  of –fen–ces  all,   And wholly them  de   –     face." B,,4 B,,2 B,,2 F,2 G,2 D,4 G,,4 | %5
 F,,4 G,,2 A,,2 B,,2 C,2 F,,4 | %6
"^___________________________________________________________\nEdited by B. C. Johnston, 2016.\n    1. All notes are half the values in the original.  \n    2. Measures 5 and 8, Altus: last note (B), sharp indication ignored." G,,4 G,2 F,2 B,,2 E,2 F,4 B,,4 | %7
 B,,4 F,2 G,2 C,4 D,4 G,,16 |] %8

